ukui-icon-theme-default/scalable/actions/view-continuous-symbolic.svg

<?xml version="1.0" encoding="utf-8"?>
<!-- Generator: Adobe Illustrator 23.0.3, SVG Export Plug-In . SVG Version: 6.00 Build 0)  -->
<svg version="1.1" id="视图" xmlns="http://www.w3.org/2000/svg" xmlns:xlink="http://www.w3.org/1999/xlink" x="0px" y="0px"
	 viewBox="0 0 16 16" style="enable-background:new 0 0 16 16;" xml:space="preserve">
<style type="text/css">
	.st0{fill:#808080;}
</style>
<title>16</title>
<path class="st0" d="M4,0v1h8V0H4z M4,3v1h8V3H4z M2,6v3h12V6H2z M3,7h10v1H3V7z M4,11v1h8v-1H4z M4,14v1h8v-1H4z"/>
</svg>

<svg id="视图" xmlns="http://www.w3.org/2000/svg" viewBox="0 0 16 16"><defs><style>.cls-1{fill:#1f2022;opacity:0.75;}</style></defs><title>view-continuous-symbolic</title><path class="cls-1" d="M4,0V1h8V0ZM4,3V4h8V3ZM2,6V9H14V6ZM3,7H13V8H3Zm1,4v1h8V11Zm0,3v1h8V14Z"/></svg>
